X:1
T:Confirma hoc, Deus
T:Antonio Salieri acc. Marco Lucchetti edit BMarble
T:Offertory for Pentecost:  Ps 68: 29-30 Summon your power, O God, which you  wielded for us from your holy temple in Jerusalem, that kings will come to you bearing tribute.
T:Confirma hoc, Deus
T:Copyright © 2018 by The Choral Public Domain Library. Edition may be freely distributed, duplicated, performed or recorded.
T:Copyright © 2018 by The Choral Public Domain Library. Edition may be freely distributed, duplicated, performed or recorded.
T:Copyright © 2018 by The Choral Public Domain Library. Edition may be freely distributed, duplicated, performed or recorded.
T:Copyright © 2018 by The Choral Public Domain Library. Edition may be freely distributed, duplicated, performed or recorded.
T:Copyright © 2018 by The Choral Public Domain Library. Edition may be freely distributed, duplicated, performed or recorded.
T:Copyright © 2018 by The Choral Public Domain Library. Edition may be freely distributed, duplicated, performed or recorded.
T:Copyright © 2018 by The Choral Public Domain Library. Edition may be freely distributed, duplicated, performed or recorded.
T:Copyright © 2018 by The Choral Public Domain Library. Edition may be freely distributed, duplicated, performed or recorded.
T:Copyright © 2018 by The Choral Public Domain Library. Edition may be freely distributed, duplicated, performed or recorded.
T:Copyright © 2018 by The Choral Public Domain Library. Edition may be freely distributed, duplicated, performed or recorded.
C:Antonio Salieri
C:acc. Marco Lucchetti
C:edit BMarble
Z:Offertory for Pentecost:  Ps 68: 29-30
Z:Summon your power, O God,
Z:which you  wielded for us from your holy temple in Jerusalem,
Z:that kings will come to you bearing tribute.
Z:Copyright © 2018 by The Choral Public Domain Library. Edition may be freely distributed, duplicated, performed or recorded.
%%score { ( 1 3 ) | ( 2 4 ) } { ( 5 7 ) | 6 }
L:1/8
Q:1/4=120
M:2/2
K:C
V:1 treble nm="Choir" snm="Choir"
V:3 treble 
V:2 bass 
V:4 bass 
V:5 treble nm="Organ" snm="Org."
V:7 treble 
V:6 bass 
V:1
 z2 | z8 | z8 | z8 | z8 | z8 | z8 | z8 | z8 | z8 | z8 | z4!f! z2 G2 | c4 d2 d2 | e2 c2 z2 G2 | %14
w: |||||||||||Con-|fir- ma hoc,|De- us, con-|
w: ||||||||||||||
 d4 e2 e2 | f2 d2 z def | g2 g2 g2 f2 | e2 e2 e2 d2 | c2 c2 d4 | B4 z4 | z8 | z8 | z8 | z8 | %24
w: fir- ma hoc,|De- us, * * *|||||||||
w: |* * quod o- pe-|ra- tus es, quod|o- pe- ra- tus|es in no-|bis.|||||
 [Ge]6 [Ge]2 | [D^F]3 [DF] [DG]4 | [Ac]4 [GB]4 | [^FA]3 [FA] G4 | [Ge]4 [Gd]4 | [^Fc]3 [Fc] [GB]4 | %30
w: Ti- bi|of- fe- rent|re- ges|mu- ne- ra,|Ti- bi|of- fe- rent|
w: ||||||
 ^c8- | [Gc]4 [G^c]4 | d6- dD | D8 | z8 | z8 | z8 | z8 | z8 | z8 | z8 | z8 | z4!f! z2 d2 | d4 d4 | %44
w: re-|* ges|mu- * ne-|ra.|||||||||a|tem- plo|
w: ||||||||||||||
 (B2 A2) G2 B2 | B4 B2 B2 | G3 ^F E4 | ^G6 G2 | (A2 B2) c2 d2 | e4 ^f4 | g4 B4 | d6 d2 | %52
w: tu- * o quod|es in Je-|ru- sa- lem.|Ti- bi|of- * fe- rent|re- ges,|re- ges|mu- ne-|
w: ||||||||
 G2 G2 (GA)(Bc) | d2 B2 d2 B2 | G2 B2 (Bc)(de) | f2 d2 f2 d2 | B4 z2 G2 | c4 d2 d2 | e2 c2 z2 G2 | %59
w: ra. * * * * *|* al- le- lu-|ia, * * * * *|* al- le- lu-|ia, Con-|fir- ma hoc,|De- us, con-|
w: * Al- le- * lu- *|ia, * * *|* al- le- * lu- *|ia, * * *||||
 d4 e2 e2 | f2 d2 z def | g2 g2 g2 f2 | e2 e2 e2 d2 | c2 c2 _B4 | A4 z4 | z4 z2 d2 | %66
w: fir- ma hoc,|De- us, * * *|||||quos|
w: |* * quod o- pe-|ra- tus es, quod|o- pe- ra- tus|es in no-|bis.||
 (d2 e2) (f2 g2) | f4 e2 e2 | d3 d ^c4 | d4 d4 | d3 E E4 | e6 d2 | c3 B A2 d2 | %73
w: es, _ quod _|es in Je-|ru- sa- lem.|Ti- bi|of- fe- rent|re- ges|mu- ne- ra. Con-|
w: |||||||
 d2 G2!p! z2"^sopr:" G2 | c4 d2 e2 | (f2 d2) B2 G2 | d4 e2 f2 | (g2 e2) c4 | c2 c4 c2 | c3 c c4- | %80
w: fer- ma, Con-|fir- ma hoc,|De- * us, con-|fir- ma hoc,|De- * us,|quod o- pe-|ra- tus es,|
w: |||||||
 c2 c4 c2 | (c2 B2) c2!p! c2 | [Ec]4 [Ec]4 | [Fd]4 [Fd]2 [Fd]2 | [Ge]4 [Ge]2 [Ge]2 | %85
w: _ es in|no- * bis, a|tem- plo|tu- o quod|es in Je-|
w: |||||
 [Af]3 [Af] [Af]4 |!f! [A_e]6 [Ae]2 | [Bd]3 [Gd] [Gd]4 | [^Fc]6 [Fc]2 | [GB]3 [^F=A] G4 | %90
w: ru- sa- lem.|Ti- bi|of- fe- rent|re- ges|mu- ne- ra.|
w: |||||
 z2 [GB]2 [Gd]2 [GB]2 | G4 z4 | z2 [Gd]2 [Gf]2 [Gd]2 | [GB]4!p! z2"^sopr:" G2 | e4- (e>f)(d>e) | %95
w: Al- le- lu-|ia,|al- le- lu-|ia, al-|le- * * lu- *|
w: |||||
 c4- (c>dB>c | A2) (fe) (fe)(dc) | (B2 g4 f2 | e2) z2!f! e4 | d4 g4 | e4!p! z2"^sopr:" G2 | %101
w: ia, _ _ _ _|||||* al-|
w: |* al- * le- * lu- *|ia, _ _|_|||
 e4- (e>f)(d>e) | c4- (c>dB>c | A2) (fe) (fe)(dc) | (B2 g4 f2 | e2) z2!f! e4 | d4 g4 | %107
w: le- * * lu- *|ia, _ _ _ _||* al- le-|ia, al-|le- lu-|
w: ||* al- * le- * lu- *|ia, _ _|_||
 e2 c2 e2 c2 | F4 a4 | g8 | g8 | c4 z4 |] %112
w: ia, al- le- lu-|ia, al-|le-|lu-|ia.|
w: |||||
V:2
 z2 | z8 | z8 | z8 | z8 | z8 | z8 | z8 | z8 | z8 | z8 | z4 z2 G,2 | [C,E]4 [G,B,]2 [G,B,]2 | %13
w: |||||||||||||
w: |||||||||||||
w: |||||||||||||
w: |||||||||||||
 C2 [C,G,]2 z2 [CE]2 | [G,B,]4 C2 C2 | [G,D]2 [G,B,]2 z4 | z4 z [G,B,][A,C][B,D] | %17
w: ||||
w: ||||
w: ||||
w: ||||
 C2 C2 C2 [B,D]2 | E2 A,4 D2 | [G,D]4!f! z2"^bass:" G,2 | A,2 B,2 C2 D2 | B,2 G,2 z2 G,2 | %22
w: |||||
w: |||||
w: ||* a|tem- * plo _|tu- o quod|
w: |||||
 A,4 G,2 G,2 | =F,3 F, E,4 | C4 E4 | A,3 A, G,4 | [^F,D]4 [G,D]4 | [CD]3 [CD] [B,D]4 | C4 [B,D]4 | %29
w: |||||||
w: |||||||
w: es in Je-|ru- sa- lem.||||||
w: |||||||
 [A,D]3 [A,D] [G,D]4 | [E,G,]8- | [E,G,]4 [E,G,]4 | [D,A,]6- [D,A,][D,A,] | [D,A,]8 | %34
w: |||||
w: |||||
w: |||||
w: |||||
 z4!p! z2"^bass:" D,2 | G,4 A,2 B,2 | C2 A,2 ^F,2 D,2 | A,4 B,2 C2 | D2 B,2 G,4 | %39
w: |||||
w: |||||
w: Con-|fir- ma hoc,|De- * us, con-|fir- ma hoc,|De- * us,|
w: |||||
"^TB:" [B,D]2 [B,D]3 [EG][D^F][CE] | [CE]3 [B,D] [B,D]4- | [B,D]2 [CE]4 [B,D]2 | %42
w: |||
w: |||
w: quod o- * pe- *|ra- tus es,|_ es in|
w: |||
 [B,D]2 [A,C]2 [G,B,]2 [G,D]2 | D4 D4 | D2 C2 B,2 B,2 | B,4 B,2 B,2 | B,3 A, G,4 | B,6 B,2 | %48
w: ||||||
w: ||||||
w: no- * bis. *||||||
w: ||||||
 C2 B,2 A,2 =G,2 | G,2 E2 D4 | [B,,D]4 B,4 | D6 D2 | G,4 z4 | z2 [G,D]2 [G,B,]2 [G,D]2 | %54
w: ||||||
w: ||||||
w: ||||||
w: ||||||
 B,2 G,2 G,A,B,C | D2 F2 D2 F2 | [G,D]4 z2 G,2 | [C,E]4 [G,B,]2 [G,B,]2 | C2 [C,G,]2 z2 [CE]2 | %59
w: |||||
w: |||||
w: |||||
w: * al- le- * lu- *|ia, * * *||||
 [G,B,]4 C2 C2 | [G,D]2 [G,B,]2 z4 | z4 z [G,B,][A,C][B,D] | C2 C2 C2 [_B,D]2 | E2 F2 G4 | C4 z4 | %65
w: ||||||
w: ||||||
w: ||||||
w: ||||||
 z4 z2 F2 | D4 B,4 | [A,C]4 [G,B,]2 [G,B,]2 | [F,A,]3 [F,A,] [E,G,]4 | [D,A,]4 [=F,D]4 | %70
w: |||||
w: |||||
w: |tu- o|es in Je-|ru- sa- lem.||
w: |||||
 [E,B,]3 [E,B,] [E,B,]4 | [E,B,]6 [E,E]2 | [A,E]3 [A,D] [A,C]2 [^F,C]2 | [G,B,]2 [G,B,]2 z4 | z8 | %75
w: |||||
w: |||||
w: |||||
w: |||||
 z8 | z8 | z8 | E2 E4 GF | [CF]3 [CE] [CE]4- | [CE]2 [CF]4 [CE]2 | E2 D2 C2 G,2 | G,4 G,2 C2 | %83
w: ||||||||
w: ||||||||
w: ||||||||
w: ||||||||
 [C,B,]4 [C,B,]2 [C,B,]2 | [C,_B,]4 [C,B,]2 [C,B,]2 | [F,A,]3 [F,C] [F,C]4 | [^F,C]6 [F,C]2 | %87
w: ||||
w: ||||
w: ||||
w: ||||
 [G,B,]3 [G,B,] [G,B,]4 | [_A,C]6 [A,C]2 | [G,D]3 [G,C] [G,B,]4 | z2 [G,D]2 [G,B,]2 [G,D]2 | %91
w: ||||
w: ||||
w: ||||
w: ||||
 [G,B,]4 z4 | z2 [G,F]2 [G,D]2 [G,F]2 | [G,D]4 z4 |!p! z2"^bass:" C,2 C2 B,2 | A,4- A,>B,G,>A, | %96
w: |||||
w: |||||
w: |||al- le- lu-|ia, _ _ _ _|
w: |||||
 F,8 |!p! z2 [G,B,][A,C] [B,D][CE][DF][B,D] | [CE]2 z2!f! [C,C]4 | [G,B,]4 [G,B,]4 | [C,C]4 z4 | %101
w: |||||
w: |||||
w: _|||||
w: |||||
!p! z2"^bass:" C,2 C2 B,2 | A,4- A,>B,G,>A, | F,8 | z2!p! [G,B,][A,C] [B,D][CE][DF][B,D] | %105
w: ||||
w: ||||
w: al- le- lu-|ia, _ _ _ _|_||
w: ||||
 [CE]2 z2!f! [C,C]4 | [G,B,]4 [G,B,]4 | C2 C2 E2 C2 | [F,F]4 [F,F]4 | [G,E]8 | [G,D]8 | C4 z4 |] %112
w: |||||||
w: |||||||
w: |||||||
w: |||||||
V:3
 x2 | x8 | x8 | x8 | x8 | x8 | x8 | x8 | x8 | x8 | x8 | x6 G2 | G4 G2 G2 | G2 E2 x2 G2 | G4 G2 G2 | %15
w: |||||||||||||||
 G2 G2 z4 | z4 z GGG | G2 G2 G2 G2 | (G4 ^F4) | G4 x4 | x8 | x8 | x8 | x8 | x8 | x8 | x8 | x8 | %28
w: |quod o- pe-|ra- tus es in|no- *|bis.|||||||||
 x8 | x8 | G8- | x8 | ^F6- FF | ^F8 | x8 | x8 | x8 | x8 | x8 | x8 | x8 | x8 | x6 B2 | %43
w: |||||||||||||||
 (A2 G2) (^F2 A2) | (G2 ^F2) G2 G2 | (^F2 E2) ^D2 F2 | E3 ^D E4 | E6 E2 | E4 E2 =G2 | G4 A4 | %50
w: |||||||
 G4 B4 | D6 D2 | G4 z4 | z2 G2 G2 G2 | G4 z4 | z2 G2 G2 G2 | G4 x2 G2 | G4 G2 G2 | G2 E2 x2 G2 | %59
w: |||||||||
 G4 G2 G2 | G2 G2 z4 | z4 z GGG | G2 G2 G2 G2 | (G2 F4 E2) | F4 x4 | x6 A2 | G4 G4 | C4 G2 G2 | %68
w: ||quod o- pe-|ra- tus es in|no- * *|bis.||||
 A3 A G4 | =F4 A4 | ^G3 G G4 | ^G6 G2 | A3 ^G A2 A2 | B2 G2 x4 | x8 | x8 | x8 | x8 | %78
w: ||||||||||
 G2 (G3 c)(BA) | A3 G G4- | G2 A4 G2 | (G2 F2) E2 E2 | x8 | x8 | x8 | x8 | x8 | x8 | x8 | x8 | x8 | %91
w: |||||||||||||
 x8 | x8 | x8 | x8 | x8 | x8 | z2 G2 G2 G2 | G2 x2 G4 | G4 G4 | G4 x4 | x8 | x8 | x8 | %104
w: ||||||al- le- lu-|ia, al-|le- lu-|ia,||||
 z2 G2 G2 G2 | G2 x2 G4 | G4 G4 | G2 C2 E2 C2 | F4 c4 | c8 | B8 | x8 |] %112
w: ||||||||
V:4
 x2 | x8 | x8 | x8 | x8 | x8 | x8 | x8 | x8 | x8 | x8 | x8 | x8 | x8 | x8 | x8 | x8 | x8 | %18
 A,4 D,4 | x8 | x8 | x8 | x8 | x8 | C,4 C4 | C3 C B,4 | x8 | x8 | x8 | x8 | x8 | x8 | x8 | x8 | %34
 x8 | x8 | x8 | x8 | x8 | x8 | x8 | x8 | x8 | ^F,2 E,2 D,2 F,2 | G,4 G,2 G,2 | ^D,2 ^C,2 B,,2 D,2 | %46
 E,3 E, E,4 | D,6 D2 | C2 ^G,2 A,2 B,2 | C4 C,4 | x8 | x8 | x8 | x8 | G,4 z4 | z2 G,2 G,2 G,2 | %56
 x8 | x8 | x8 | x8 | x8 | x8 | x8 | A,4 G,4 | F,4 z2 A,2 | A,2 =B,2 C2 D2 | B,2 G,2 z2 G,2 | x8 | %68
 x8 | x8 | x8 | x8 | x8 | x8 | x8 | x8 | x8 | x8 | C2 C4 C2 | x8 | x8 | G,4 C2 C,2 | C,4 C,4 | x8 | %84
 x8 | x8 | x8 | x8 | x8 | x8 | x8 | x8 | x8 | x8 | x8 | x8 | x8 | x8 | x8 | x8 | x8 | x8 | x8 | %103
 x8 | x8 | x8 | x8 | x8 | x8 | x8 | x8 | x8 |] %112
V:5
!f! G2 | [Ec]4 [GBd]3 [GBd] | [Gce]2 [EGc]2 z2 G2 | [GBd]4 [Gce]3 [Gce] | [GBdf]2 [GBd]2 z2 G2 | %5
 e4- e>fd>e | c4- c>dB>c | A2 fe fedc | B2 g4 f2 | e2 z2 [ca]2 z2 | [cg]2 z2 [DGB]2 z2 | %11
 [EGc]2 C2 E2 G2 | [EGc]4 [GBd]3 [GBd] | [Gce]2 [EGc]2 z2 G2 | [GBd]4 [Gce]3 [Gce] | %15
 [GBdf]2 [GBd]2 z def | g2 [Gg]4 [Gf]2 | e2 [Ge]4 [DGd]2 | [EGc]4 [^Fd]4 | [DGB]4 z4 | z8 | z8 | %22
 z8 | z8 | [Gce] [Gce]2 [Gce]2 [Gce]2 [Gce] | [Ad]4 d4 | [DAc]4 [DGB]4 | %27
 [^FAd]2 [FAd][FAd] [DGd]4 | [Ge]4 [Gd]4 | cAdc [GB]4 | [EG^c] [EGc]2 [EGc]2 [EGc]2 [EGc]- | %31
 [EGc] [EG^c]2 [EGc]2 [EGc]2 [EGc] | [^Fd]4 GAB^c | d2 e^f gab^c' | [d^fad']4 z4 | %35
 z2!p! [B,DG]2 [^FA]2 [DGB]2 | [DAc]8 | z2 [^FA]2 [GB]2 [Ac]2 | [Gd]8 | [Bd]2 [Bd]3 [eg][d^f][ce] | %40
 [ce]3 [Bd] [Bd]4- | [Bd]2 [Gce]4 [GBd]2 | [Bd]2 [Ac]2 [GB]2!f! [GB]d | AdGd ^FdAD | BDCA B,DGB | %45
 ^FBEB ^DBFB, | GB,A,^F G,B,EG | [B,^G] [B,G]2 [B,G]- [B,G] [EG]2 [EG] | AE[B,B]E [Ec]A[=Gd]G | %49
 [Ee]cGE ^FAd^f | [Gdg]4 B4 | d4 D4 | G2 G2 GABc | d2 [GB]2 [Gd]2 [GB]2 | G2 B2 Bcde | %55
 f2 [Bd]2 [df]2 [Bd]2 | [GB]4 z2 G2 | [EGc]4 [GBd]3 [GBd] | [Gce]2 [EGc]2 z2 G2 | %59
 [GBd]4 [Gce]3 [Gce] | [GBdf]2 [GBd]2 z def | g2 [Gg]4 [Gf]2 | [Ge]2 [Ge]4 [Gd]2 | %63
 [EGc]2 [Fc]4 [G_Be]2 | [Acf]4 z2 A,2 | A,2 =B,2 C2 [FAd]2 | d2 e2 f2 g2 | fcAF EGBe | %68
 dAFD ^CEG^c | [=Fd] [FAd]2 [FAd]- [FAd] [FAd]2 ([FAd-] | %70
 [E^Gd]) [EGB]2 [EGB]- [EGB] [EGB]2 [EGB] | [E^GBe] [EGBe]2 [EGBe]2 [EGBe]2 [GBd] | %72
 [EAc] [EAc]2 [D^GB] [CA]2 [Ac^f]2 | [Bdg]2 G2 z2!p! G2 | c4 d2 e2 | f8 | [Bd]4 [ce]2 [df]2 | %77
 [Gcg]8 | g2 g3 c'ba | [fa]3 [eg] [eg]4- | [eg]2 [fa]4 [eg]2 | [ceg]2 [Bdf]2 [ce]2!p! [Ec]2 | %82
 [Ec]8 | [Fd]8 | [Ge]8 | [Acf]8 |!f! _ecAc ecec | [GBd]2 [GBd][GBd] [Gd]BGG | c_B_AG ^F2 F2 | %89
 [B,G]2 G3 ABc | d2 [DGB]2 [GBd]2 [DGB]2 | [B,G]2 B2 Bcde | f2 [Bd]2 [df]2 [Bd]2 | [GB]4 z2!p! G2 | %94
 e4- e>fd>e | c4- c>dB>c | A2 fe fedc | B2 g4 f2 | [ce]2 z2!f! [Gce]4 | [GBd]4 [GBg]4 | %100
 [Gce]4 z2!p! G2 | e4- e>fd>e | c4- c>dB>c | A2 fe fedc | B2 g4 f2 | [ce]2 z2!f! [Gce]4 | %106
 [GBd]4 [GBg]4 | [Gce]2 c2 e2 c2 | F2 z2 [cfa]2 z2 | [ceg]4 [Gce]4 | [GBd]4 [dgb]4 | [cec']4 z4 |] %112
V:6
 G,2 | C,E,G,C G,,B,,D,G, | C,E,G,C ECG,E, | G,,B,,D,G, C,E,G,C | G,,B,,D,G, B,2 z2 | %5
 z2 C,2 C2 B,2 | z2 A,,2 A,2 G,2 | [F,C]2 z2 z4 | G,2 G,A, B,CDB, | C2 z2 [F,F]2 z2 | %10
 [G,E]2 z2 G,,2 z2 | C,2 C,2 E,2 G,2 | C,E,G,C G,,B,,D,G, | C,E,G,C ECG,E, | G,,B,,D,G, C,E,G,C | %15
 G,,B,,D,G, B,2 z2 | z4 z [G,B,][A,C][B,D] | [CE]2 [C,C]4 [B,,B,]2 | [A,,A,]4 D,,2 D,2 | %19
 G,,4 z2 [G,,G,]2 | [A,,A,]2 [B,,B,]2 [C,C]2 [D,D]2 | [B,,B,]2 [G,,G,]2 z2 [G,,G,]2 | %22
 [A,,A,]4 [G,,G,]2 [G,,G,]2 | [=F,,=F,]3 [F,,F,] [E,,E,]4 | C,,D,,E,,F,, G,,A,,B,,C, | C,4 B,,4 | %26
 ^F,,4 G,,4 | C,4 B,,4 | [C,E,]4 [B,,G,]4 | [A,,A,]4 [G,,G,]4 | E,,^F,,G,,A,, B,,^C,D,E, | %31
 E,,^F,,G,,A,, B,,^C,D,E, | [D,,D,]8 | D,,2 E,,^F,, G,,A,,B,,^C, | D,4 z4 | %35
 z2 B,,2 [A,,A,]2 [G,,G,]2 | [^F,,^F,]8 | z2 D,4 C,2 | B,,8 | G,,2 [G,,G,]2 [G,,G,]2 [G,,G,]2 | %40
 [G,,G,]2 [G,,G,]2 [G,,G,]2 [G,,G,]2 | [G,,G,]2 [G,,G,]2 [G,,G,]2 [G,,G,]2 | %42
 [D,,D,]2 [^F,,^F,]2 [G,,G,]2 [G,,G,]2 | [^F,,^F,]2 [E,,E,]2 [D,,D,]2 [F,,F,]2 | %44
 [G,,G,]4 [G,,G,]2 E,2 | ^D,2 ^C,2 B,,2 D,2 | E,4 E,,2 E,,2 | D,,E,,^F,,^G,, A,,B,,C,D, | %48
 C,2 ^G,,2 A,,2 B,,2 | [C,C]4 [C,A,]4 | [B,,B,]4 [B,,B,]4 | [D,D]4 [D,,D,]4 | [G,,G,]4 z4 | %53
 z2 [G,B,D]2 [G,B,D]2 [G,B,D]2 | [G,B,D]2 G,2 G,A,B,C | D2 [G,B,D]2 [G,B,D]2 [G,B,D]2 | %56
 [G,B,D]4 z2 G,2 | C,E,G,C G,,B,,D,G, | C,E,G,C ECG,E, | G,,B,,D,G, C,E,G,C | G,,B,,D,G, B,2 z2 | %61
 z4 z [G,B,][A,C][B,D] | [CE]2 [C,C]4 [_B,,_B,]2 | [A,,A,]4 [G,,G,]4 | [F,,F,]4 z2 A,,2 | %65
 A,,2 =B,,2 C,2 [D,D]2 | [B,,B,]2 [G,,G,]2 z2 G,2 | [A,C]4 [G,B,]4 | [F,A,]4 [E,G,]4 | %69
 D,,E,,=F,,G,, A,,B,,C,D, | E,,^F,,^G,,A,, B,,C,D,E, | E,,^F,,^G,,A,, B,,C,D,E, | %72
 A,,C,E,A, A,2 D,2 | G,2 [G,,G,]2 z4 | z8 | z8 | z2 [G,,G,]4 [F,,F,]2 | [E,,E,]8 | %78
 [C,,C,]2 C2 C2 C2 | C2 C2 C2 C2 | [C,,C,]2 C2 C2 C2 | [G,,G,]2 z2 [C,C]2 [C,G,]2 | %82
 [C,C]2 [C,C]2 [C,C]2 [C,C]2 | [C,B,]2 [C,B,]2 [C,B,]2 [C,B,]2 | [C,_B,]2 [C,B,]2 [C,B,]2 [C,B,]2 | %85
 [F,,F,]2 [F,,F,]2 [F,,F,]2 [F,,F,]2 | [^F,,^F,]2 [F,,F,]2 [F,,F,]2 [F,,F,]2 | %87
 [G,,G,]2 [G,,G,]2 [G,,G,]2 [G,,G,]2 | [_A,,_A,]2 [A,,A,]2 [A,,A,]2 [A,,A,]2 | [G,,G,]4 z4 | %90
 z2 [G,,G,]2 [G,,G,]2 [G,,G,]2 | [G,,G,]2 G,2 G,A,B,C | D2 [G,B,D]2 [G,B,D]2 [G,B,D]2 | %93
 [G,B,D]4 z4 | z2 C,2 C2 B,2 | z2 A,,2 A,2 G,2 | [F,C]2 z2 z4 | G,2 G,A, B,CDB, | C2 z2 C,D,E,F, | %99
 G,A,B,A, G,D,B,,G,, | [C,,C,]4 z4 | z2 C,2 C2 B,2 | z2 A,,2 A,2 G,2 | [F,C]2 z2 z4 | %104
 G,2 G,A, B,CDB, | C2 z2 C,D,E,F, | G,A,B,A, G,D,B,,G,, | [C,,C,]2 [C,C]2 [E,E]2 [C,C]2 | %108
 [F,,F,]4 [F,,F,]4 | G,G,,A,,B,, C,D,E,F, | G,4 [G,,G,]4 | [C,,C,]4 z4 |] %112
V:7
 x2 | x8 | x8 | x8 | x8 | z2 G4 G2 | z2 E4 E2 | x8 | G2 Bc defd | x8 | x8 | x8 | x8 | x8 | x8 | %15
 x8 | x8 | x8 | x8 | x8 | x8 | x8 | x8 | x8 | x8 | ^FDEF GGAB | x8 | x8 | x8 | ^F4 D4 | x8 | x8 | %32
 D2 E^F x4 | x8 | x8 | x8 | x8 | x2 D4 D2 | x8 | x8 | x8 | x8 | ^F2 D4 D2 | D8 | x8 | x8 | x8 | %47
 x8 | x8 | x8 | x8 | x8 | x8 | x8 | x8 | x8 | x8 | x8 | x8 | x8 | x8 | x8 | x8 | x8 | x8 | x8 | %66
 G4 B4 | x8 | x8 | x8 | x8 | x8 | x8 | x8 | z2 [EG]2 [D=F]2 [CG]2 | [B,DG]8 | z2 G4 G2 | x8 | %78
 e2 e4 gf | x8 | x8 | x8 | x8 | x8 | x8 | x8 | A8 | x8 | C8 | x8 | x8 | x8 | x8 | x8 | z2 G4 G2 | %95
 z2 E4 E2 | x8 | G2 Bc defd | x8 | x8 | x8 | z2 G4 G2 | z2 E4 E2 | x8 | G2 Bc defd | x8 | x8 | x8 | %108
 x8 | x8 | x8 | x8 |] %112

